X: 12835
T: Fem Får Og Fire Geder
R: polka
M: 2/4
K: Gmajor
B2 B2|BA AG|G/A/B/A/ G/A/B/c/|BA AG|dD EF|G2 [GG,]2:|
|:d2 d2|dc cB|B/c/d/c/ B/c/d/e/|dc cB|BA/G/ A2|BA/G/ A2|B/c/d/e/ dc/B/|A3 G:|

